X:1
T:Lasciar' il velo
T:Francesco de Layolle (1492 - c.1540)
T:Lasciar' il velo
C:Francesco de Layolle (1492 - c.1540)
%%score 1 2 3 4
L:1/8
M:2/2
K:F
V:1 treble nm="Soprano" snm="Soprano"
V:2 treble nm="Alto" snm="Alto"
V:3 treble-8 nm="Tenor" snm="Tenor"
V:4 bass nm="Bass" snm="Bass"
V:1
 z4 D4 | B,2 C2 D4 | D4 z2 D2 | D2 D2 E2 E2 | F3 E FG A2- | A2 G2 A4 | z2 G2 G2 G2 | F2 G2 _E4 | %8
w: Las-|ciar' il ve-|lo ò|per sol' o per|om- * * * *|* * bra,|Don- na non|vi vi- d'i-|
 D2 B2 B2 B2 | A2 F2 A4 | G2 E2 G3 F | E2 D4 C2 | D2 F2 F2 F2 | G4 A2 G2 | B3 A G2 F2- | F2 E2 F4 | %16
w: o Poi ch'in me|co- no- sce-|sti il gran de-|si- * *|o Ch'o- gn'al- tra|vo- glia ch'o-|gn'al- tra vo- *|* * glia|
 z8 | z4 z2 B2- | B2 A2 G2 F2 | G3 A B2 A2- | AG G4 !courtesy!^F2 | G8- | G8- | G8 | G4 G2 G2 | %25
w: |d'en-|* tr'al cor mi|sgom- * * *||bra.|_||Men- tre por-|
 A4 F4 | z2 B2 B2 G2 | A2 B2 G4 | F2 F2 F2 G2- | G2 F4 E2 | F2 F2 B,2 B,2 | _E8 | D2 F2 F2 F2 | %33
w: ta- va|i bei pen-|sier ce- la-|ti, Ch'an- no la|_ men- te|de- si- an- do|mor-|ta Vid- di- vi|
 G2 G2 A2 A2 | z2 A2 B3 A | G3 F E4 | D2 B2 B2 B2 | A2 F2 A2 A2 | G2 E2 G3 F | %39
w: di pie- ta- te|or- nar' il|vol- * *|to; Ma poi ch'a-|mor di me vi|fe- ce'ac- cor- *|
 E2 D4 !courtesy!^C2 | D4 z4 | z8 | z2 G2 G2 F2 | B3 A G2 F2 | G2 D2 E2 F2 | ED G4 !courtesy!^F2 | %46
w: |ta,||Fuor i bion-|di _ _ ca-|pel- li al- l'hor|ve- * la- *|
 G4 z4 | z8 | z2 B2 B2 A2 | G2 F2 G3 F | E2 D4 C2 | D4 z4 | z4 z2 A2 | B2 B2 A2 A2 | G2 B2 G2 B2- | %55
w: ti,||E l'a- mo-|ro- so sguar- do'in|se rac- col-|to.|Quel|che più de- si-|a- va in voi|
 B2 AG A4 | B2 F2 B3 A | G2 F2 E4 | D8 | z8 | z8 | z8 | z8 | z4 z2 F2 | F2 G3 F F2- | F2 E2 F4 | %66
w: _ m'è _ tol-|to: sí mi go-|ver- na'il ve-|lo|||||De|bei vo- * str'o-|* * cchi|
 z8 | z4 z2 B2 | B2 A2 G2 F2 | G3 A B2 A2- | AG G4 ^F2 | G8- | G8- | G8 |] %74
w: |il|dol- ce lu- m'a-|dom- * * *||bra.|_||
V:2
 A,4 A,2 B,2- | B,A, G,4 !courtesy!^F,2 | G,2 G,2 B,2 A,2 | B,2 D4 !courtesy!^C2 | D4 z4 | %5
w: Las- ciar' il|_ _ _ ve-|lo ò per sol'|o per om-|bra,|
 z2 G,4 F,2 | G,3 A, B,2 C2- | CB, B,4 A,2 | B,2 D2 D2 B,2 | F2 F2 F4 | E4 z2 C2 | %11
w: Don- na,|non _ vi vi-|* * d'i- *|o Poi ch'in me|co- no- sce-|sti il|
 G,2 B,2 B,2 A,G, | F,4 z2 D2 | D2 D2 E4 | F2 F2 D2 D2 | C3 B, A,2 D2- | D2 B,2 C4 | A,2 D2 B,3 C | %18
w: gran de- si- * *|o Ch'o-|gn'al- tra vo-|glia ch'o- gn'al- tra|vo- * glia d'en-|* tr'al cor|mi sgom- bra _|
 D4 z2 D2- | D2 C2 B,2 C2 | B,2 G,2 D4 | z4 _E4 | _E2 D2 C4 | =B,8 | D4 E2 E2 | F2 F2 z2 F2 | %26
w: _ d'en-|* tr'al cor mi|sgom- * bra|al|cor mi sgom-|bra.|Men- tre por-|ta- va i|
 G2 G3 F _E2- | E2 D4 C2 | D4 z2 D2 | D2 D2 C2 C2 | A,2 D2 DCB,A, | G,F, B,4 A,2 | B,4 z2 D2 | %33
w: bei pen- * sier|_ ce la-|ti, Ch'an-|no la men- te|de- si- an- * * *|* do mor- *|ta Vid-|
 D2 D2 E2 E2 | F2 F2 D2 B,2- | B,C D4 !courtesy!^C2 | D2 D2 D2 B,2 | F4 F4 | E2 E2 E4- | E2 F2 G4 | %40
w: di- vi di pie-|ta- te or- nar'|_ il vol- *|to; Ma poi ch'a-|mor di|me vi fe-|* ce'ac- cor-|
 F8 | z2 D2 C2 D2 | E2 C2 D2 D2 | z2 G,2 G,2 A,2 | B,3 A, G,2 F,2 | C2 C2 D4 | B,2 D2 D2 C2 | %47
w: ta|Fuor i bion-|di ca- pel- li|fuor i bion-|di ca- pel- li'al-|l'hor ve- la-|ti E l'a- mo-|
 B,CDE F4 | D2 D3 E F2 | D4 D2 C2- | C2 F,2 G,4 | A,2 D2 C2 B,2 | A,2 G,2 A,4 | G,2 G4 F2 | %54
w: ro- * * * *|so sguar- * *|do in se|_ rac- col-|to. Quel che più|de- si- a-|va in voi|
 D4 D3 E | F8 | D2 D2 D2 D2 | B,2 D4 !courtesy!^C2 | D4 z4 | z4 z2 D2 | _E6 D2 | C4 B,2 D2 | %62
w: m'è tol- *||to: sí mi go-|ver- na'il ve-|lo|Che|per mia|mor- te et|
 D2 C2 C2 B,2 | _E4 D4 | z2 D2 D2 D2 | C3 B, A,2 D2 | D2 B,2 C4 | A,2 D2 B,3 C | D4 z2 D2 | %69
w: al cal- d'et al|gie- lo,|De bei vo-|str'o- * cchi il|dol- ce lu-|me a- dom- *|bra il|
 D2 C2 B,2 C2 | B,2 G,2 D4 | z2 B,2 C2 D2 | _E2 D2 C4 | =B,8 |] %74
w: dol- ce lu- m'a-|dom- * bra|il dol- ce|lu- m'a- dom-|bra.|
V:3
 z4 F4 | G2 G2 A4 | B4 z4 | z4 z2 A2 | A2 d2 d2 c2 | B4 A2 d2 | c2 B2 G2 G2 | B4 c4 | z4 z2 d2 | %9
w: Las-|ciar' il ve-|lo|ò|per sol' o per|om- bra Don-|na non vi vi-|d'i- o|Poi|
 d2 d2 c2 A2 | c4 G2 G2 | c2 F2 G4 | A4 z2 B2 | B2 B2 c4 | d2 d2 B3 A | G4 F4 | B4 G2 A2- | %17
w: ch'in me co- no-|sce- sti il|gran de- si-|o Ch'o-|gn'al- tra vo-|glia ch'o- gn'al- tra|vo- glia|d'en- tr'al cor|
 A2 F2 G4 | F4 z4 | z8 | z2 B4 A2 | G3 F GA B2 | c2 d2 _e4 | d8 | z4 c4 | c2 c2 d4 | B2 d2 d2 B2 | %27
w: _ mi sgom-|bra||d'en- tr'al|cor _ _ _ _|mi sgom- *|bra.|Men-|tre por- ta-|va i bei pen-|
 c2 B4 AG | A4 z2 B2 | B2 B2 G2 G2 | F3 E F2 G2 | B2 B2 c4 | F4 z2 B2 | B2 B2 c2 c2 | d2 d2 G4 | %35
w: sier ce- la- *|ti, Ch'an-|no la men- te|de- * * si-|an- do mor-|ta Vid-|di- vi di pie-|ta- te or-|
 G2 G2 A4 | D4 z2 d2 | d2 d2 c2 A2 | c4 c4 | c2 A2 G4 | A2 d2 d2 c2 | B3 A G2 F2 | G2 G2 A4 | %43
w: nar' il vol-|to; Ma|poi ch'a- mor di|me vi|fe- ce'ac- cor-|ta Fuor i bion-|di ca- pel- li'al-|l'hor ve- la-|
 G4 z4 | z2 B2 c2 d2 | G4 A4 | G2 B2 B2 A2 | G2 G2 F4 | G3 A Bc d2 | B2 A2 G2 C2 | C2 D2 _E4 | %51
w: ti|al- l'hor ve-|la- *|ti E l'a- mo-|ro- so sguar-||* * do in|se rac- col-|
 D4 z2 d2 | d2 c2 d2 d2 | d4 d2 d2 | B4 B4 | c8 | B8 | z4 A4 | B6 A2 | G3 F GA B2- | B2 A2 B4 | %61
w: to. Quel|che più de- si-|a- va in|voi m'è|tol-|to:|Che|per mia|mor- * * * *|* * te|
 F4 G2 B2- | BG A2 GF B2- | B2 A2 B4 | z2 B2 B2 B2 | G4 F2 F2 | B4 G2 A2- | A2 F2 G4 | F4 z4 | z8 | %70
w: et al cal-|* d'et al gie- * *|* * lo,|De bei vo-|str'o- cchi il|dol- ce lu-|* m'a- dom-|bra||
 z2 B2 B2 A2 | G3 F GA B2 | c2 d2 _e4 | d8 |] %74
w: il dol- ce|lu- * * * *|* m'a- dom-|bra.|
V:4
 D,8 | E,2 E,2 D,4 | G,,2 G,2 G,2 F,2 | G,2 B,2 A,4 | D,4 z4 | z4 D,4 | _E,6 C,2 | D,2 _E,2 C,4 | %8
w: Las-|ciar' il ve-|lo ò per sol'|o per om-|bra,|Don-|na non|vi vi- d'i-|
 B,,2 G,2 G,2 G,2 | F,2 D,2 F,4 | C,4 z2 C,2 | C,2 B,,2 !courtesy!_E,4 | D,4 z4 | z8 | %14
w: o Poi ch'in me|co- no- sce-|sti il|gran de- si-|o||
 z2 B,,2 B,,2 B,,2 | C,4 D,4 | G,4 E,2 F,2- | F,2 D,2 _E,4 | D,4 B,4- | B,2 A,2 G,2 F,2 | G,4 D,4 | %21
w: Ch'o- gn'al- tra|vo- glia|d'en- tr'al cor|* mi sgom-|bra d'en|_ tr'al cor mi|sgom- bra|
 z2 _E,4 D,2 | C,2 B,,2 C,4 | G,,8 | G,4 C,2 C,2 | F,4 B,,3 A,, | G,,2 G,2 G,2 G,2 | F,2 G,2 _E,4 | %28
w: den- tr'al|cor mi sgom-|bra.|Men- tre per-|ta- va _|_ i bei pen-|sier ce- la-|
 D,4 z2 B,,2 | B,,2 B,,2 C,2 C,2 | D,3 C, D,2 _E,2- | E,2 D,2 C,4 | B,,8 | z8 | z8 | z8 | %36
w: ti, Ch'an-|no la men- te|de- * * si-|an- do mor-|ta||||
 z2 G,2 G,2 G,2 | F,2 D,2 F,4 | C,4 C,4- | C,2 D,2 E,4 | D,2 B,2 B,2 A,2 | G,3 F, E,2 D,2 | %42
w: Ma poi ch'a-|mor di me|vi fe-|* ce'ac- cor-|ta Fuor i bion-|di ca- pel- li'al-|
 C,2 E,2 D,4 | G,,2 B,2 B,2 A,2 | G,3 F, E,2 D,2 | C,2 E,2 D,4 | G,,4 z4 | z2 G,2 B,2 A,2 | %48
w: l'hor ve- la-|ti fuor i bion-|di ca- pel- li'al-|l'hor ve- la-|ti|E l'a- mo-|
 G,6 F,2 | G,2 D,2 z2 G,2 | A,2 B,4 A,G, | F,2 B,2 A,2 G,2 | F,2 E,2 D,4 | G,,4 z4 | G,4 G,2 G,2 | %55
w: ro- so|sguar- do in|se rac- col- *|to. Quel che più|de- si- a-|va|in voi m'è|
 F,8 | B,,8 | z8 | z4 D,4 | E,6 D,2 | C,4 B,,2 B,2 | B,2 A,2 G,3 F, | D,E, F,2 _E,3 D, | C,4 B,,4 | %64
w: tol-|to:||Che|per mia|mor- te et|al cal- d'et _|_ _ al gie- *|* lo,|
 z2 B,,2 B,,2 B,,2 | C,4 D,2 D,2 | G,4 E,2 F,2- | F,2 D,2 _E,4 | D,4 B,4 | B,2 A,2 G,2 F,2 | %70
w: De bei vo-|str'o- cchi il|dol- ve lu-|* m'a- dom-|bra il|dol- ce lu- m'a-|
 G,4 D,4 | z2 _E,2 E,2 D,2 | C,2 B,,2 C,4 | G,,8 |] %74
w: dom- bra|il dol- ce|lu- m'a- dom-|bra.|

